!!!COM: Ives, Charles
!!!OTL: Sonata No. 1 for Violin and Piano
!!!OMV: IV: Allegro - Presto - Slow
!!!example: 257
!!!work: Ive-25
**kern	**kern	**dynam
*part1	*part1	*part1
*staff2	*staff1	*
*I"Piano	*	*
*I'Pno.	*	*
*clefF4	*clefG2	*
*k[]	*k[]	*
*C:	*C:	*
*M2/4	*M2/4	*
*MM121	*MM121	*
=56	=	=
4A	8AL	.
.	16d'L	.
.	16f'JJ	.
4D#X	16D#XKL	.
.	8e	.
.	16g'Jk 16b	.
=57	=57	=57
*^	*	*
(8AAL	4AA	[2ff	f
16DL	.	.	.
16B-XJJ)	.	.	.
16GGKL	4GG	.	.
(8E^	.	.	.
16B-Jk)	.	.	.
=58	=58	=58	=58
*	*	*^	*
16AALL	8.AAL	2ff]	16ffKL	.
(16D	.	.	[8.cc#XJ	.
16B-X')	.	.	.	.
16GGJJ	[16GGJk	.	.	.
(16GGKL	4GG]	.	8cc#L]	.
8E	.	.	.	.
.	.	.	8dd#XJ	.
16B-Jk)	.	.	.	.
=59	=59	=59	=59	=59
16AALL	8.AAL	(8bL	4b-X	mf
(16D	.	.	.	.
16B-X')	.	8ddnJ)	.	.
16GGJJ	[16GGJk	.	.	.
(8EL	16GG]	(8.ddL	4b-	.
.	16ryy	.	.	.
8B-XJ)	8ryy	.	.	.
.	.	16ffJk)	.	.
*	*	*v	*v	*
=60	=60	=60	=60
!!linebreak:original
(8AAL	4AA	(4b-X^ 4dd	.
16DL	.	.	.
16B-XJJ)	.	.	.
16GGKL	4GG	8g'L) 8b-	.
(8E^	.	.	.
.	.	(8g^J 8b- 8dd	.
16B-Jk)	.	.	.
=61	=61	=61	=61
*	*	*^	*
(16AALL	4AA	8gL) 8b-X 8ff	8ryy	.
16DJ	.	.	.	.
8B-XJ)	.	(8.ff^	4dd	.
16GGKL	4GG	.	.	.
(8E^	.	16aak)	.	.
.	.	[8dd^J [8ff	8r	.
16B-'Jk)	.	.	.	.
*	*	*v	*v	*
=62	=62	=62	=62
(16AALL	8.AAL	8dd] 8ff]	.
16D	.	.	.
16B-X')	.	4b-X 4dd	.
16GGJJ	[16GGJk	.	.
(8EL	16GG]	.	.
.	16ryy	.	.
8B-XJ)	8ryy	8ryy	.
=63	=63	=63	=63
(8AAL	4AA	(4.ffn 4.ddd 4.fff#X	.
16DL	.	.	.
16B-XJJ)	.	.	.
16GGKL	4GG	.	.
(8E^	.	.	.
.	.	[8gg#X) [8eee [8ggg	.
16B-Jk)	.	.	.
*v	*v	*	*
==	==	==
*-	*-	*-
!!!CDT: 1874/10/20-1954/05/19
!!!CBL: Danbury, United States
!!!CDL: New York, United States
!!!CNT: American
!!!AGN: Instrumental; Keyboard
!!!MCN:
!!!MDT: 1949/02/17
!!!MGN:
!!!MLC: New York, New York, United States of America
!!!MPD: 1949
!!!MPN: Masselos, William
!!!ODT: 1921
!!!PDT: 1954
!!!excerpt-start-measure: 56
!!!excerpt-end-measure: 63
!!!excerpt-start-time: 1:23
!!!excerpt-end-time: 1:28
!!!EEV: 2020/01/17
!!!system-decoration: {(s1,s2)}
!!!ONB: Converted from MusicXML on 2020/01/17
